Newaita-dark/.places-mint/24/folder-git.svg

<?xml version="1.0" encoding="UTF-8"?>
<svg xmlns="http://www.w3.org/2000/svg" xmlns:xlink="http://www.w3.org/1999/xlink" width="24px" height="24px" viewBox="0 0 24 24" version="1.1">
<defs>
<linearGradient id="linear0" gradientUnits="userSpaceOnUse" x1="254" y1="233.5" x2="254" y2="254.666672" gradientTransform="matrix(0.0468795,0,0,0.0468795,-0.0000028613,10.07909)">
<stop offset="0" style="stop-color:rgb(0%,0%,0%);stop-opacity:0.27451;"/>
<stop offset="1" style="stop-color:rgb(0%,0%,0%);stop-opacity:0;"/>
</linearGradient>
<radialGradient id="radial0" gradientUnits="userSpaceOnUse" cx="450.908936" cy="189.579361" fx="450.908936" fy="189.579361" r="21.166656" gradientTransform="matrix(0.000000130628,-0.0585994,-0.105479,-0.0000000761539,40.58641,47.696501)">
<stop offset="0" style="stop-color:rgb(0%,0%,0%);stop-opacity:0.313726;"/>
<stop offset="0.222222" style="stop-color:rgb(0%,0%,0%);stop-opacity:0.27451;"/>
<stop offset="1" style="stop-color:rgb(0%,0%,0%);stop-opacity:0;"/>
</radialGradient>
<radialGradient id="radial1" gradientUnits="userSpaceOnUse" cx="450.908936" cy="189.579361" fx="450.908936" fy="189.579361" r="21.166656" gradientTransform="matrix(-0.000000130628,0.0585994,0.105479,0.0000000761539,-16.771633,-5.645608)">
<stop offset="0" style="stop-color:rgb(0%,0%,0%);stop-opacity:0.313726;"/>
<stop offset="0.222222" style="stop-color:rgb(0%,0%,0%);stop-opacity:0.27451;"/>
<stop offset="1" style="stop-color:rgb(0%,0%,0%);stop-opacity:0;"/>
</radialGradient>
<radialGradient id="radial2" gradientUnits="userSpaceOnUse" cx="450.908936" cy="189.579361" fx="450.908936" fy="189.579361" r="21.166656" gradientTransform="matrix(-0.000000130628,-0.0585994,0.105479,-0.0000000761539,-16.771633,47.696501)">
<stop offset="0" style="stop-color:rgb(0%,0%,0%);stop-opacity:0.313726;"/>
<stop offset="0.222222" style="stop-color:rgb(0%,0%,0%);stop-opacity:0.27451;"/>
<stop offset="1" style="stop-color:rgb(0%,0%,0%);stop-opacity:0;"/>
</radialGradient>
<radialGradient id="radial3" gradientUnits="userSpaceOnUse" cx="450.908936" cy="189.579361" fx="450.908936" fy="189.579361" r="21.166656" gradientTransform="matrix(0.000000130628,0.0585994,-0.105479,0.0000000761539,40.586408,-5.645608)">
<stop offset="0" style="stop-color:rgb(0%,0%,0%);stop-opacity:0.313726;"/>
<stop offset="0.222222" style="stop-color:rgb(0%,0%,0%);stop-opacity:0.27451;"/>
<stop offset="1" style="stop-color:rgb(0%,0%,0%);stop-opacity:0;"/>
</radialGradient>
<linearGradient id="linear1" gradientUnits="userSpaceOnUse" x1="254" y1="-147.5" x2="254" y2="-31.083334" gradientTransform="matrix(0.0468795,0,0,0.0468795,0.000000937315,10.079086)">
<stop offset="0" style="stop-color:rgb(64.313728%,64.313728%,64.313728%);stop-opacity:0;"/>
<stop offset="1" style="stop-color:rgb(100%,100%,100%);stop-opacity:0.196078;"/>
</linearGradient>
<linearGradient id="linear2" gradientUnits="userSpaceOnUse" x1="254" y1="233.5" x2="254" y2="-105.166656" gradientTransform="matrix(0.0468795,0,0,0.0468795,-0.0000013593,10.079087)">
<stop offset="0" style="stop-color:rgb(34.509805%,34.509805%,34.509805%);stop-opacity:0;"/>
<stop offset="1" style="stop-color:rgb(98.039216%,98.039216%,98.039216%);stop-opacity:0.196078;"/>
</linearGradient>
</defs>
<g id="surface1">
<path style=" stroke:none;fill-rule:nonzero;fill:url(#linear0);" d="M 2.976562 21.027344 L 20.839844 21.027344 L 20.839844 22.019531 L 2.976562 22.019531 Z M 2.976562 21.027344 "/>
<path style=" stroke:none;fill-rule:nonzero;fill:url(#radial0);" d="M 20.839844 21.027344 L 22.824219 21.027344 L 22.824219 20.03125 L 20.839844 20.03125 Z M 20.839844 21.027344 "/>
<path style=" stroke:none;fill-rule:nonzero;fill:url(#radial1);" d="M 2.976562 21.027344 L 0.992188 21.027344 L 0.992188 22.019531 L 2.976562 22.019531 Z M 2.976562 21.027344 "/>
<path style=" stroke:none;fill-rule:nonzero;fill:url(#radial2);" d="M 2.976562 21.027344 L 0.992188 21.027344 L 0.992188 20.03125 L 2.976562 20.03125 Z M 2.976562 21.027344 "/>
<path style=" stroke:none;fill-rule:nonzero;fill:url(#radial3);" d="M 20.839844 21.027344 L 22.824219 21.027344 L 22.824219 22.019531 L 20.839844 22.019531 Z M 20.839844 21.027344 "/>
<path style=" stroke:none;fill-rule:nonzero;fill:rgb(61.176473%,80.000001%,39.607844%);fill-opacity:1;" d="M 5.457031 3.164062 L 21.582031 3.164062 C 22.128906 3.164062 22.574219 3.609375 22.574219 4.15625 L 22.574219 7.878906 C 22.574219 8.425781 22.128906 8.871094 21.582031 8.871094 L 5.457031 8.871094 C 4.910156 8.871094 4.464844 8.425781 4.464844 7.878906 L 4.464844 4.15625 C 4.464844 3.609375 4.910156 3.164062 5.457031 3.164062 Z M 5.457031 3.164062 "/>
<path style=" stroke:none;fill-rule:nonzero;fill:url(#linear1);" d="M 5.457031 3.164062 L 21.582031 3.164062 C 22.128906 3.164062 22.574219 3.609375 22.574219 4.15625 L 22.574219 7.878906 C 22.574219 8.425781 22.128906 8.871094 21.582031 8.871094 L 5.457031 8.871094 C 4.910156 8.871094 4.464844 8.425781 4.464844 7.878906 L 4.464844 4.15625 C 4.464844 3.609375 4.910156 3.164062 5.457031 3.164062 Z M 5.457031 3.164062 "/>
<path style=" stroke:none;fill-rule:nonzero;fill:rgb(90.196079%,90.196079%,90.196079%);fill-opacity:0.392157;" d="M 5.457031 3.230469 C 4.90625 3.230469 4.464844 3.671875 4.464844 4.222656 L 4.464844 4.347656 C 4.464844 3.796875 4.90625 3.355469 5.457031 3.355469 L 21.582031 3.355469 C 22.132812 3.355469 22.574219 3.796875 22.574219 4.347656 L 22.574219 4.222656 C 22.574219 3.671875 22.132812 3.230469 21.582031 3.230469 Z M 5.457031 3.230469 "/>
<path style=" stroke:none;fill-rule:nonzero;fill:rgb(12.941177%,12.941177%,12.941177%);fill-opacity:1;" d="M 5.457031 3.09375 C 4.871094 3.09375 4.394531 3.570312 4.394531 4.15625 L 4.394531 7.878906 C 4.394531 8.464844 4.871094 8.941406 5.457031 8.941406 L 21.582031 8.941406 C 22.167969 8.941406 22.644531 8.464844 22.644531 7.878906 L 22.644531 4.15625 C 22.644531 3.570312 22.167969 3.09375 21.582031 3.09375 Z M 5.457031 3.234375 L 21.582031 3.234375 C 22.09375 3.234375 22.503906 3.644531 22.503906 4.15625 L 22.503906 7.878906 C 22.503906 8.390625 22.09375 8.800781 21.582031 8.800781 L 5.457031 8.800781 C 4.945312 8.800781 4.535156 8.390625 4.535156 7.878906 L 4.535156 4.15625 C 4.535156 3.644531 4.945312 3.234375 5.457031 3.234375 Z M 5.457031 3.234375 "/>
<path style=" stroke:none;fill-rule:nonzero;fill:rgb(68.235296%,83.529413%,50.588238%);fill-opacity:1;" d="M 1.984375 5.148438 C 1.433594 5.148438 0.992188 5.589844 0.992188 6.140625 L 0.992188 20.03125 C 0.992188 20.582031 1.433594 21.027344 1.984375 21.027344 L 21.832031 21.027344 C 22.378906 21.027344 22.824219 20.582031 22.824219 20.03125 L 22.824219 7.628906 L 9.425781 7.628906 C 8.878906 7.628906 8.433594 7.1875 8.433594 6.636719 L 8.433594 5.148438 Z M 1.984375 5.148438 "/>
<path style=" stroke:none;fill-rule:nonzero;fill:url(#linear2);" d="M 1.984375 5.148438 C 1.433594 5.148438 0.992188 5.589844 0.992188 6.140625 L 0.992188 20.03125 C 0.992188 20.582031 1.433594 21.027344 1.984375 21.027344 L 21.832031 21.027344 C 22.378906 21.027344 22.824219 20.582031 22.824219 20.03125 L 22.824219 7.628906 L 9.425781 7.628906 C 8.878906 7.628906 8.433594 7.1875 8.433594 6.636719 L 8.433594 5.148438 Z M 1.984375 5.148438 "/>
<path style=" stroke:none;fill-rule:nonzero;fill:rgb(0%,0%,0%);fill-opacity:0.196078;" d="M 1.984375 21.027344 C 1.433594 21.027344 0.992188 20.582031 0.992188 20.03125 L 0.992188 19.910156 C 0.992188 20.457031 1.433594 20.902344 1.984375 20.902344 L 21.832031 20.902344 C 22.378906 20.902344 22.824219 20.457031 22.824219 19.910156 L 22.824219 20.03125 C 22.824219 20.582031 22.378906 21.027344 21.832031 21.027344 Z M 1.984375 21.027344 "/>
<path style=" stroke:none;fill-rule:nonzero;fill:rgb(90.196079%,90.196079%,90.196079%);fill-opacity:0.392157;" d="M 1.984375 5.210938 C 1.433594 5.210938 0.992188 5.652344 0.992188 6.203125 L 0.992188 6.328125 C 0.992188 5.777344 1.433594 5.335938 1.984375 5.335938 L 8.433594 5.335938 L 8.433594 5.210938 Z M 1.984375 5.210938 "/>
<path style=" stroke:none;fill-rule:nonzero;fill:rgb(90.196079%,90.196079%,90.196079%);fill-opacity:0.392157;" d="M 9.363281 7.753906 C 8.816406 7.753906 8.371094 7.3125 8.371094 6.761719 L 8.371094 6.636719 C 8.371094 7.1875 8.816406 7.628906 9.363281 7.628906 L 22.824219 7.628906 L 22.824219 7.753906 Z M 9.363281 7.753906 "/>
<path style=" stroke:none;fill-rule:nonzero;fill:rgb(12.941177%,12.941177%,12.941177%);fill-opacity:1;" d="M 1.984375 5.078125 C 1.398438 5.078125 0.921875 5.554688 0.921875 6.140625 L 0.921875 20.03125 C 0.921875 20.621094 1.398438 21.097656 1.984375 21.097656 L 21.832031 21.097656 C 22.417969 21.097656 22.894531 20.621094 22.894531 20.03125 L 22.894531 7.488281 L 9.425781 7.488281 C 8.914062 7.488281 8.503906 7.078125 8.503906 6.566406 L 8.503906 5.078125 Z M 1.984375 5.21875 L 8.363281 5.21875 L 8.363281 6.566406 C 8.363281 7.15625 8.839844 7.628906 9.425781 7.628906 L 22.753906 7.628906 L 22.753906 20.03125 C 22.753906 20.546875 22.34375 20.957031 21.832031 20.957031 L 1.984375 20.957031 C 1.472656 20.957031 1.0625 20.546875 1.0625 20.03125 L 1.0625 6.140625 C 1.0625 5.628906 1.472656 5.21875 1.984375 5.21875 Z M 1.984375 5.21875 "/>
<path style=" stroke:none;fill-rule:nonzero;fill:rgb(54.509807%,76.47059%,29.019609%);fill-opacity:1;" d="M 9.648438 9.589844 C 8.996094 9.589844 8.449219 10.003906 8.242188 10.582031 L 8.160156 10.582031 C 7.886719 10.582031 7.664062 10.804688 7.664062 11.078125 C 7.664062 11.355469 7.886719 11.574219 8.160156 11.574219 L 8.242188 11.574219 C 8.449219 12.15625 8.996094 12.566406 9.648438 12.566406 C 9.867188 12.566406 10.074219 12.519531 10.261719 12.4375 L 13.253906 15.425781 C 13.167969 15.613281 13.121094 15.820312 13.121094 16.039062 C 13.121094 16.867188 13.785156 17.527344 14.609375 17.527344 C 15.433594 17.527344 16.097656 16.867188 16.097656 16.039062 C 16.097656 15.214844 15.433594 14.550781 14.609375 14.550781 C 14.367188 14.550781 14.140625 14.609375 13.9375 14.710938 L 10.976562 11.75 C 11.007812 11.695312 11.03125 11.636719 11.050781 11.574219 L 13.207031 11.574219 C 13.410156 12.15625 13.960938 12.566406 14.609375 12.566406 C 15.433594 12.566406 16.097656 11.902344 16.097656 11.078125 C 16.097656 10.253906 15.433594 9.589844 14.609375 9.589844 C 13.960938 9.589844 13.410156 10.003906 13.207031 10.582031 L 11.050781 10.582031 C 10.847656 10.003906 10.296875 9.589844 9.648438 9.589844 Z M 9.648438 9.589844 "/>
<path style=" stroke:none;fill-rule:nonzero;fill:rgb(0%,0%,0%);fill-opacity:0.235294;" d="M 9.648438 9.589844 C 8.996094 9.589844 8.449219 10.003906 8.242188 10.582031 L 8.160156 10.582031 C 7.886719 10.582031 7.664062 10.804688 7.664062 11.078125 C 7.664062 11.109375 7.667969 11.140625 7.671875 11.171875 C 7.714844 10.941406 7.917969 10.765625 8.160156 10.765625 L 8.242188 10.765625 C 8.449219 10.1875 8.996094 9.773438 9.648438 9.773438 C 10.296875 9.773438 10.847656 10.1875 11.050781 10.765625 L 13.207031 10.765625 C 13.410156 10.1875 13.960938 9.773438 14.609375 9.773438 C 15.402344 9.773438 16.046875 10.390625 16.09375 11.171875 C 16.097656 11.140625 16.097656 11.109375 16.097656 11.078125 C 16.097656 10.253906 15.433594 9.589844 14.609375 9.589844 C 13.960938 9.589844 13.410156 10.003906 13.207031 10.582031 L 11.050781 10.582031 C 10.847656 10.003906 10.296875 9.589844 9.648438 9.589844 Z M 11.035156 11.804688 C 11.015625 11.847656 11 11.890625 10.976562 11.933594 L 13.9375 14.894531 C 14.140625 14.792969 14.367188 14.734375 14.609375 14.734375 C 15.402344 14.734375 16.046875 15.351562 16.09375 16.132812 C 16.097656 16.101562 16.097656 16.070312 16.097656 16.039062 C 16.097656 15.214844 15.433594 14.550781 14.609375 14.550781 C 14.367188 14.550781 14.140625 14.609375 13.9375 14.710938 Z M 13.199219 15.558594 C 13.148438 15.710938 13.121094 15.871094 13.121094 16.039062 C 13.121094 16.070312 13.121094 16.101562 13.125 16.132812 C 13.136719 15.945312 13.179688 15.769531 13.253906 15.609375 Z M 13.199219 15.558594 "/>
<path style=" stroke:none;fill-rule:nonzero;fill:rgb(12.941177%,12.941177%,12.941177%);fill-opacity:1;" d="M 9.648438 9.519531 C 8.984375 9.519531 8.425781 9.933594 8.199219 10.511719 L 8.160156 10.511719 C 7.847656 10.511719 7.59375 10.765625 7.59375 11.078125 C 7.59375 11.390625 7.847656 11.644531 8.160156 11.644531 L 8.199219 11.644531 C 8.425781 12.226562 8.984375 12.636719 9.648438 12.636719 C 9.859375 12.636719 10.058594 12.59375 10.242188 12.515625 L 13.171875 15.445312 C 13.097656 15.628906 13.050781 15.828125 13.050781 16.039062 C 13.050781 16.902344 13.746094 17.597656 14.609375 17.597656 C 15.472656 17.597656 16.167969 16.902344 16.167969 16.039062 C 16.167969 15.179688 15.472656 14.480469 14.609375 14.480469 C 14.375 14.480469 14.15625 14.539062 13.957031 14.628906 L 11.0625 11.734375 C 11.074219 11.703125 11.085938 11.675781 11.097656 11.644531 L 13.160156 11.644531 C 13.386719 12.226562 13.949219 12.636719 14.609375 12.636719 C 15.472656 12.636719 16.167969 11.941406 16.167969 11.078125 C 16.167969 10.21875 15.472656 9.519531 14.609375 9.519531 C 13.949219 9.519531 13.386719 9.933594 13.160156 10.511719 L 11.097656 10.511719 C 10.871094 9.933594 10.308594 9.519531 9.648438 9.519531 Z M 9.648438 9.660156 C 10.269531 9.660156 10.792969 10.054688 10.984375 10.605469 L 11.050781 10.652344 L 13.207031 10.652344 L 13.273438 10.605469 C 13.464844 10.054688 13.988281 9.660156 14.609375 9.660156 C 15.398438 9.660156 16.027344 10.292969 16.027344 11.078125 C 16.027344 11.867188 15.398438 12.496094 14.609375 12.496094 C 13.988281 12.496094 13.464844 12.105469 13.273438 11.550781 L 13.207031 11.503906 L 11.050781 11.503906 L 10.984375 11.550781 C 10.964844 11.609375 10.941406 11.664062 10.914062 11.71875 L 10.929688 11.800781 L 13.890625 14.761719 L 13.96875 14.773438 C 14.164062 14.675781 14.378906 14.621094 14.609375 14.621094 C 15.398438 14.621094 16.027344 15.253906 16.027344 16.039062 C 16.027344 16.828125 15.398438 17.457031 14.609375 17.457031 C 13.824219 17.457031 13.191406 16.828125 13.191406 16.039062 C 13.191406 15.832031 13.234375 15.632812 13.316406 15.457031 L 13.300781 15.378906 L 10.3125 12.386719 L 10.234375 12.371094 C 10.054688 12.453125 9.855469 12.496094 9.648438 12.496094 C 9.027344 12.496094 8.503906 12.105469 8.308594 11.550781 L 8.242188 11.503906 L 8.160156 11.503906 C 7.921875 11.503906 7.734375 11.316406 7.734375 11.078125 C 7.734375 10.84375 7.921875 10.652344 8.160156 10.652344 L 8.242188 10.652344 L 8.308594 10.605469 C 8.503906 10.054688 9.027344 9.660156 9.648438 9.660156 Z M 9.648438 9.660156 "/>
<path style=" stroke:none;fill-rule:nonzero;fill:rgb(100%,100%,100%);fill-opacity:0.392157;" d="M 7.667969 11.210938 C 7.664062 11.234375 7.664062 11.253906 7.664062 11.273438 C 7.664062 11.550781 7.886719 11.769531 8.160156 11.769531 L 8.242188 11.769531 C 8.449219 12.347656 8.996094 12.761719 9.648438 12.761719 C 9.867188 12.761719 10.074219 12.714844 10.261719 12.632812 L 13.214844 15.585938 C 13.226562 15.554688 13.238281 15.527344 13.253906 15.5 L 10.261719 12.507812 C 10.074219 12.589844 9.867188 12.636719 9.648438 12.636719 C 8.996094 12.636719 8.449219 12.226562 8.242188 11.644531 L 8.160156 11.644531 C 7.90625 11.644531 7.699219 11.457031 7.667969 11.210938 Z M 16.097656 11.210938 C 16.0625 12.007812 15.414062 12.636719 14.609375 12.636719 C 13.960938 12.636719 13.410156 12.226562 13.207031 11.644531 L 11.050781 11.644531 C 11.03125 11.707031 11.007812 11.765625 10.976562 11.820312 L 11.015625 11.859375 C 11.03125 11.832031 11.042969 11.800781 11.050781 11.769531 L 13.207031 11.769531 C 13.410156 12.347656 13.960938 12.761719 14.609375 12.761719 C 15.433594 12.761719 16.097656 12.097656 16.097656 11.273438 C 16.097656 11.253906 16.097656 11.234375 16.097656 11.210938 Z M 16.097656 16.171875 C 16.0625 16.96875 15.414062 17.601562 14.609375 17.601562 C 13.804688 17.601562 13.15625 16.96875 13.121094 16.175781 C 13.121094 16.195312 13.121094 16.214844 13.121094 16.234375 C 13.121094 17.058594 13.785156 17.722656 14.609375 17.722656 C 15.433594 17.722656 16.097656 17.058594 16.097656 16.234375 C 16.097656 16.214844 16.097656 16.195312 16.097656 16.171875 Z M 16.097656 16.171875 "/>
</g>
</svg>

<svg xmlns="http://www.w3.org/2000/svg" width="24" height="24"><defs><linearGradient id="a" gradientUnits="userSpaceOnUse" x1="254" y1="233.5" x2="254" y2="254.667" gradientTransform="matrix(.04688 0 0 .04688 0 10.08)"><stop offset="0" stop-opacity=".275"/><stop offset="1" stop-opacity="0"/></linearGradient><radialGradient id="b" gradientUnits="userSpaceOnUse" cx="450.909" cy="189.579" fx="450.909" fy="189.579" r="21.167" gradientTransform="matrix(0 -.0586 -.10548 0 40.586 47.697)"><stop offset="0" stop-opacity=".314"/><stop offset=".222" stop-opacity=".275"/><stop offset="1" stop-opacity="0"/></radialGradient><radialGradient id="c" gradientUnits="userSpaceOnUse" cx="450.909" cy="189.579" fx="450.909" fy="189.579" r="21.167" gradientTransform="matrix(0 .0586 .10548 0 -16.772 -5.646)"><stop offset="0" stop-opacity=".314"/><stop offset=".222" stop-opacity=".275"/><stop offset="1" stop-opacity="0"/></radialGradient><radialGradient id="d" gradientUnits="userSpaceOnUse" cx="450.909" cy="189.579" fx="450.909" fy="189.579" r="21.167" gradientTransform="matrix(0 -.0586 .10548 0 -16.772 47.697)"><stop offset="0" stop-opacity=".314"/><stop offset=".222" stop-opacity=".275"/><stop offset="1" stop-opacity="0"/></radialGradient><radialGradient id="e" gradientUnits="userSpaceOnUse" cx="450.909" cy="189.579" fx="450.909" fy="189.579" r="21.167" gradientTransform="matrix(0 .0586 -.10548 0 40.586 -5.646)"><stop offset="0" stop-opacity=".314"/><stop offset=".222" stop-opacity=".275"/><stop offset="1" stop-opacity="0"/></radialGradient><linearGradient id="f" gradientUnits="userSpaceOnUse" x1="254" y1="-147.5" x2="254" y2="-31.083" gradientTransform="matrix(.04688 0 0 .04688 0 10.08)"><stop offset="0" stop-color="#a4a4a4" stop-opacity="0"/><stop offset="1" stop-color="#fff" stop-opacity=".196"/></linearGradient><linearGradient id="g" gradientUnits="userSpaceOnUse" x1="254" y1="233.5" x2="254" y2="-105.167" gradientTransform="matrix(.04688 0 0 .04688 0 10.08)"><stop offset="0" stop-color="#585858" stop-opacity="0"/><stop offset="1" stop-color="#fafafa" stop-opacity=".196"/></linearGradient><linearGradient id="h" gradientUnits="userSpaceOnUse" x1="254" y1="-147.5" x2="254" y2="233.5" gradientTransform="matrix(.04688 0 0 .04688 0 10.08)"><stop offset="0" stop-color="#a4a4a4" stop-opacity="0"/><stop offset="1" stop-color="#fff" stop-opacity=".196"/></linearGradient></defs><path d="M2.977 21.027H20.84v.993H2.977zm0 0" fill="url(#a)"/><path d="M20.84 21.027h1.984v-.996H20.84zm0 0" fill="url(#b)"/><path d="M2.977 21.027H.992v.993h1.985zm0 0" fill="url(#c)"/><path d="M2.977 21.027H.992v-.996h1.985zm0 0" fill="url(#d)"/><path d="M20.84 21.027h1.984v.993H20.84zm0 0" fill="url(#e)"/><path d="M5.457 3.164h16.125c.547 0 .992.445.992.992V7.88a.994.994 0 0 1-.992.992H5.457a.994.994 0 0 1-.992-.992V4.156c0-.547.445-.992.992-.992zm0 0" fill="#7cb342"/><path d="M5.457 3.164h16.125c.547 0 .992.445.992.992V7.88a.994.994 0 0 1-.992.992H5.457a.994.994 0 0 1-.992-.992V4.156c0-.547.445-.992.992-.992zm0 0" fill="url(#f)"/><path d="M5.457 3.164a.989.989 0 0 0-.992.992v.125c0-.55.441-.992.992-.992h16.125c.55 0 .992.441.992.992v-.125a.989.989 0 0 0-.992-.992zm0 0" fill="#e6e6e6" fill-opacity=".588"/><path d="M5.457 3.094c-.586 0-1.062.476-1.062 1.062V7.88c0 .586.476 1.062 1.062 1.062h16.125c.586 0 1.063-.476 1.063-1.062V4.156c0-.586-.477-1.062-1.063-1.062zm0 .14h16.125c.512 0 .922.41.922.922V7.88c0 .512-.41.922-.922.922H5.457a.919.919 0 0 1-.922-.922V4.156c0-.511.41-.922.922-.922zm0 0" fill="#212121"/><path d="M1.984 5.148a.989.989 0 0 0-.992.993v13.89c0 .551.442.996.992.996h19.848a.994.994 0 0 0 .992-.996V7.63H9.426a.991.991 0 0 1-.992-.992V5.148zm0 0" fill="#9ccc65"/><path d="M1.984 5.148a.989.989 0 0 0-.992.993v13.89c0 .551.442.996.992.996h19.848a.994.994 0 0 0 .992-.996V7.63H9.426a.991.991 0 0 1-.992-.992V5.148zm0 0" fill="url(#g)"/><path d="M1.984 21.027a.992.992 0 0 1-.992-.996v-.12c0 .546.442.991.992.991h19.848a.994.994 0 0 0 .992-.992v.121c0 .551-.445.996-.992.996zm0 0" fill-opacity=".196"/><path d="M1.984 5.148a.989.989 0 0 0-.992.993v.125c0-.551.442-.993.992-.993h6.45v-.125zm0 0M9.363 7.691a.991.991 0 0 1-.992-.992v-.125c0 .551.445.996.992.992h13.461v.125zm0 0" fill="#e6e6e6" fill-opacity=".937"/><path d="M1.984 5.078c-.586 0-1.062.477-1.062 1.063v13.89c0 .59.476 1.067 1.062 1.067h19.848c.586 0 1.063-.477 1.063-1.067V7.488H9.425a.919.919 0 0 1-.921-.922V5.078zm0 .14h6.38v1.348c0 .59.476 1.063 1.062 1.063h13.328V20.03a.92.92 0 0 1-.922.926H1.984a.92.92 0 0 1-.921-.926V6.141c0-.512.41-.922.921-.922zm0 0" fill="#212121"/><path d="M9.648 9.59c-.652 0-1.199.414-1.406.992H8.16a.497.497 0 0 0 0 .992h.082c.207.582.754.992 1.406.992.22 0 .426-.046.614-.129l2.992 2.989a1.483 1.483 0 0 0 1.355 2.102c.825 0 1.489-.66 1.489-1.489a1.485 1.485 0 0 0-2.16-1.328l-2.961-2.961a.88.88 0 0 0 .074-.176h2.156a1.48 1.48 0 0 0 1.402.992c.825 0 1.489-.664 1.489-1.488s-.664-1.488-1.489-1.488c-.648 0-1.199.414-1.402.992h-2.156a1.486 1.486 0 0 0-1.403-.992zm0 0" fill="#7cb342"/><path d="M9.648 9.59c-.652 0-1.199.414-1.406.992H8.16a.497.497 0 0 0 0 .992h.082c.207.582.754.992 1.406.992.22 0 .426-.046.614-.129l2.992 2.989a1.483 1.483 0 0 0 1.355 2.102c.825 0 1.489-.66 1.489-1.489a1.485 1.485 0 0 0-2.16-1.328l-2.961-2.961a.88.88 0 0 0 .074-.176h2.156a1.48 1.48 0 0 0 1.402.992c.825 0 1.489-.664 1.489-1.488s-.664-1.488-1.489-1.488c-.648 0-1.199.414-1.402.992h-2.156a1.486 1.486 0 0 0-1.403-.992zm0 0" fill="url(#h)"/><path d="M9.648 9.52c-.664 0-1.222.414-1.449.992H8.16a.567.567 0 0 0 0 1.133h.04a1.55 1.55 0 0 0 2.042.87l2.93 2.93a1.555 1.555 0 0 0 1.438 2.152 1.558 1.558 0 1 0 0-3.117c-.235 0-.454.06-.653.149l-2.895-2.895.036-.09h2.062c.227.583.79.993 1.45.993.863 0 1.558-.696 1.558-1.559a1.558 1.558 0 0 0-3.008-.566h-2.062a1.56 1.56 0 0 0-1.45-.992zm0 .14a1.41 1.41 0 0 1 1.336.945l.067.047h2.156l.066-.047a1.41 1.41 0 0 1 1.336-.945c.79 0 1.418.633 1.418 1.418a1.41 1.41 0 0 1-1.418 1.418c-.62 0-1.144-.39-1.336-.945l-.066-.047h-2.156l-.067.047a1.27 1.27 0 0 1-.07.168l.016.082 2.96 2.96.079.012a1.42 1.42 0 0 1 2.058 1.266 1.41 1.41 0 0 1-1.418 1.418 1.413 1.413 0 0 1-1.418-1.418c0-.207.043-.406.125-.582l-.015-.078-2.989-2.992-.078-.016c-.18.082-.379.125-.586.125-.62 0-1.144-.39-1.34-.945l-.066-.047H8.16a.422.422 0 0 1-.426-.426c0-.234.188-.426.426-.426h.082l.067-.047c.195-.55.718-.945 1.34-.945zm0 0" fill="#212121"/></svg>
